img/icons/volume.svg

<?xml version="1.0" encoding="utf-8"?>
<!-- Generator: Adobe Illustrator 17.1.0, SVG Export Plug-In . SVG Version: 6.00 Build 0)  -->
<!DOCTYPE svg PUBLIC "-//W3C//DTD SVG 1.1//EN" "http://www.w3.org/Graphics/SVG/1.1/DTD/svg11.dtd">
<svg version="1.1"  xmlns="http://www.w3.org/2000/svg" xmlns:xlink="http://www.w3.org/1999/xlink" x="0px" y="0px"
	 viewBox="0 0 24 24" enable-background="new 0 0 24 24" xml:space="preserve">
<g >
	<rect  x="0" y="0" fill="none" width="24" height="24"/>
	<path fill="none" stroke="#000000" stroke-width="2" stroke-miterlimit="10" d="M1,12V8h5l6-5v18l-6-5H1V12 M15,20
		c4.4111,0,8-3.5889,8-8s-3.5889-8-8-8 M15,16c2.2091,0,4-1.7909,4-4s-1.7909-4-4-4"/>
</g>
</svg>

<svg xmlns="http://www.w3.org/2000/svg" width="24" height="24" viewBox="0 0 24 24">
  <path fill="none" stroke="#000000" stroke-width="2" d="M15,16 C17.209,16 19,14.209 19,12 C19,9.791 17.209,8 15,8 M15,20 C20,20 23,16.411 23,12 C23,7.589 19.411,4 15,4 M1,12 L1,8 L6,8 L12,3 L12,21 L6,16 L1,16 L1,12"/>
</svg>
